material/.icons/material/size-xl.svg

<svg xmlns="http://www.w3.org/2000/svg" viewBox="0 0 24 24"><path d="M6 7h2l1 2.5L10 7h2l-2 5 2 5h-2l-1-2.5L8 17H6l2-5-2-5m7 0h2v8h4v2h-6V7z"/></svg>

<?xml version="1.0" encoding="UTF-8"?><!DOCTYPE svg PUBLIC "-//W3C//DTD SVG 1.1//EN" "http://www.w3.org/Graphics/SVG/1.1/DTD/svg11.dtd"><svg xmlns="http://www.w3.org/2000/svg" xmlns:xlink="http://www.w3.org/1999/xlink" version="1.1" id="mdi-size-xl" width="24" height="24" viewBox="0 0 24 24"><path d="M6 7H8L9 9.5L10 7H12L10 12L12 17H10L9 14.5L8 17H6L8 12L6 7M13 7H15V15H19V17H13V7Z" /></svg>
